!!!SOCIAL_FUNCTION: drunken-man dance songs
!!!PDT:	1943
!!!LING_GROUP: Muskogean
!!!LANG: Non-Tone
Specific Region: Oklahoma, California, Mississippi, Louisiana, Texas, Alabama
!!!REG: Southeast
!!!COM: Anon.
!!!OTL: Drunken-man Dance Song (f)
!!!ODT: <1933//
!!!MPN: Lysander Tubby and Gus Willis
!!!MLC: Philadelphia, Mississippi, United States of America
!! Song was recorded in January 1933.
!!!AGN: monody
!!!AMT: simple duple
!!!RWG: Transcribed pitches, durations, and meters are only approximate.
**kern
*ICvox
*Imale
*clefF4
*k[f#c#g#]
*M2/4
*MM96
*[A,A,B]
*>A
=!|:1
8F#
[8F#
8F#]
8F#
=2
8F#
8F#
4F#
=3
8A
8F#
4E
=4
8A
[8A
8A]
8A
=5
8A
8r
4A
=6
8A
8A
8E
8r
=7
8F#
[8F#
8F#]
8F#
=8
8F#
8r
4F#
=9
8F#
8E
8E
8r
=10
8F#
[8F#
8F#]
8F#
=11
8F#
8F#
4F#
=12
8A
8A
4E
=13
8A
[8A
8A]
8A
=14
8A
8r
4A
=15
8.A
16G#
8E
8r
=16
8F#
[8F#
8F#]
8F#
=17
8F#
8r
4F#
=18
8.F#
16E
8E
8r
=:|!19
*>B
8F#
[8F#
8F#]
8F#
=20
8F#
8r
4r
==
*-
!!!CNT: Choctaw
!!!TXO: Choctaw
!!!OCY: United States
!!!OCL: Frances Densmore
!!!YOR: Frances Densmore, "Choctaw Music"
!!!YOR: Bulletin 136, page 148, No. 26
!!!PPR: Smithsonian Institution, Bureau of American Ethnology
!!!PPR: Government Printing Office
!!!PDT: 1943
!!!PPP: Washington, DC, United States of America
!!!YEC: Electronic Copyright 2000 David Huron
!!!YER: August 2000
!!!YEN: United States of America
!!!ENC: David Huron
!!!RDT: August 28, 2000
!!!EEV: Release 1.0
!!!AIN: vox
